X: 41
T: JOHN CARMICHAEL'S FAREWELL TO SCOTLAND
C: Andrew Rankine 1980
R: march, shottish, strathspey
B: "The Complete Andrew Rankine Collection of Scottish Country Dance Tunes" p.44
Z: 2017 John Chambers <jc:trillian.mit.edu>
M: 2/4
L: 1/16
K: D
d>B |\
"D"A>AA>B  d2d>B | A>Bd>e     f>ed<c | "Em"B>BB>d      e2B>d |  e>de>f "A7"g>ec<e |
y4 |\
"D"A>AA>B  d2d>B | A>Bd>e "D7"f>ed<c |  "G"B>AG>B "A7"c>BA<g | "D"f2d2 d2 :|
|: e2 |\
"D"f>dd>e  f2f>e | d>dd>f     g>fe<d | "A7"c>AA>c      e2A>c |  e>de>f g>ec<e |
y4 |\
"D"f>dd>e  f2f>e | d>dd>f "D7"g>fe<d |  "G"B>AG>B "A7"c>BA<g | "D"f2d2 d2 :|
|: d>B |\
"D"A>AA>B d>AA>B | d>Ad>e     f>ed<c | "Em"B>BB>d     e>BB>d |  e>de>f "A7"g>ec<e |
y4 |\
"D"A>AA>B d>AA>B | d>Ad>e "D7"f>ed>c |  "G"B>AG>B "A7"c>BA<g | "D"f2d2 d2 :|
|: f>g |\
"D"a>ff>g f>dd>a | a>ff>d     g>fe<d | "A7"c<AA>c     e>cc>e |  g>ee>f g>ec<e |
y4 |\
"D"a>ff>g f>dd>a | a>ff>d "D7"g>fe<d |  "G"B>AG>B "A7"c>BA<g | "D"f2d2 d2 :|

%%sep 1 1 500

